images/icon_phone.svg

<svg width="24" height="24" viewBox="0 0 24 24" fill="none" xmlns="http://www.w3.org/2000/svg">
<path d="M10.795 7.20019L7.97586 3.94602C7.65086 3.57102 7.05503 3.57269 6.67753 3.95102L4.3592 6.27352C3.6692 6.96435 3.4717 7.99019 3.87086 8.81269C6.25555 13.7502 10.2376 17.7378 15.1717 20.1294C15.9934 20.5285 17.0184 20.331 17.7084 19.6402L20.0484 17.296C20.4275 16.9169 20.4284 16.3177 20.05 15.9927L16.7834 13.1885C16.4417 12.8952 15.9109 12.9335 15.5684 13.2769L14.4317 14.4152C14.3735 14.4762 14.2969 14.5164 14.2137 14.5296C14.1304 14.5429 14.0451 14.5284 13.9709 14.4885C12.1129 13.4186 10.5717 11.8754 9.5042 10.016C9.46422 9.94165 9.44974 9.85621 9.46299 9.77282C9.47624 9.68942 9.51647 9.61268 9.57753 9.55435L10.7109 8.42019C11.0542 8.07519 11.0917 7.54185 10.795 7.19935V7.20019Z" stroke="#26303B" stroke-width="2" stroke-linecap="round" stroke-linejoin="round"/>
</svg>

<svg width="24" height="24" fill="none" xmlns="http://www.w3.org/2000/svg"><path d="m10.795 7.2-2.82-3.254c-.324-.375-.92-.373-1.297.005L4.359 6.274c-.69.69-.887 1.716-.488 2.539a24.34 24.34 0 0 0 11.3 11.316c.822.4 1.847.202 2.537-.489l2.34-2.344c.38-.38.38-.978.002-1.303l-3.267-2.805c-.341-.293-.872-.255-1.215.089l-1.136 1.138a.385.385 0 0 1-.461.074 12.13 12.13 0 0 1-4.467-4.473.386.386 0 0 1 .074-.462L10.71 8.42c.343-.345.38-.878.084-1.22v0Z" stroke="#26303B" stroke-width="2" stroke-linecap="round" stroke-linejoin="round"/></svg>
